img/mir.svg

<svg width="64" height="64" viewBox="0 0 64 64" fill="none" xmlns="http://www.w3.org/2000/svg">
<path d="M18.6295 24V24.0072C18.6223 24.0072 16.3632 24 15.7608 26.1587C15.2086 28.1381 13.6523 33.6005 13.6093 33.7511H13.179C13.179 33.7511 11.5869 28.1668 11.0275 26.1515C10.4251 23.9928 8.15883 24 8.15883 24H3V40.4184H8.16123V30.6672H8.59153L11.6036 40.4183H15.1871L18.1992 30.6744H18.6295V40.4183H23.7907V24H18.6295ZM37.4839 24C37.4839 24 35.9706 24.1363 35.2606 25.7213L31.6055 33.7511H31.1752V24H26.0139V40.4184H30.8883C30.8883 40.4184 32.4732 40.275 33.1833 38.6972L36.7668 30.6673H37.1971V40.4184H42.3583V24H37.4839ZM44.6532 31.4562V40.4184H49.8144V35.1854H55.406C57.8444 35.1854 59.9074 33.6292 60.6748 31.4586H44.6532V31.4562Z" fill="#4DB45E"/>
<path d="M55.4087 24H43.9292C44.5029 27.1269 46.848 29.6346 49.8792 30.4521C50.5829 30.6427 51.3088 30.7392 52.0379 30.7391H60.8854C60.9642 30.3661 61.0001 29.986 61.0001 29.5916C61.0002 26.5029 58.4973 24 55.4087 24Z" fill="url(#paint0_linear_53_681)"/>
<defs>
<linearGradient id="paint0_linear_53_681" x1="43.9292" y1="27.3695" x2="61.0001" y2="27.3695" gradientUnits="userSpaceOnUse">
<stop offset="0.3" stop-color="#00B4E6"/>
<stop offset="1" stop-color="#088CCB"/>
</linearGradient>
</defs>
</svg>

<svg width="64" height="64" fill="none" xmlns="http://www.w3.org/2000/svg"><path d="M18.63 24v.007c-.008 0-2.267-.007-2.87 2.152-.551 1.98-2.108 7.441-2.15 7.592h-.431s-1.592-5.584-2.152-7.6C10.425 23.993 8.16 24 8.16 24H3v16.418h5.161v-9.75h.43l3.013 9.75h3.583l3.012-9.744h.43v9.744h5.162V24h-5.162zm18.854 0s-1.513.136-2.223 1.721l-3.656 8.03h-.43V24h-5.161v16.418h4.874s1.585-.143 2.295-1.72l3.584-8.03h.43v9.75h5.161V24h-4.874zm7.17 7.456v8.962h5.16v-5.233h5.592a5.585 5.585 0 005.269-3.726H44.653v-.003z" fill="#4DB45E"/><path d="M55.409 24h-11.48a8.247 8.247 0 008.109 6.74h8.847c.08-.374.115-.754.115-1.148A5.59 5.59 0 0055.41 24z" fill="url(#paint0_linear_53_681)"/><defs><linearGradient id="paint0_linear_53_681" x1="43.929" y1="27.369" x2="61" y2="27.369" gradientUnits="userSpaceOnUse"><stop offset=".3" stop-color="#00B4E6"/><stop offset="1" stop-color="#088CCB"/></linearGradient></defs></svg>
